apps/16/netbeans.svg

<?xml version="1.0" encoding="UTF-8" standalone="no"?>
<!-- Created with Inkscape (http://www.inkscape.org/) -->

<svg
   xmlns:dc="http://purl.org/dc/elements/1.1/"
   xmlns:cc="http://creativecommons.org/ns#"
   xmlns:rdf="http://www.w3.org/1999/02/22-rdf-syntax-ns#"
   xmlns:svg="http://www.w3.org/2000/svg"
   xmlns="http://www.w3.org/2000/svg"
   xmlns:sodipodi="http://sodipodi.sourceforge.net/DTD/sodipodi-0.dtd"
   xmlns:inkscape="http://www.inkscape.org/namespaces/inkscape"
   version="1.0"
   width="16"
   height="16"
   id="svg2"
   inkscape:version="0.48.4 r9939"
   sodipodi:docname="netbeans.svg">
  <sodipodi:namedview
     pagecolor="#ffffff"
     bordercolor="#666666"
     borderopacity="1"
     objecttolerance="10"
     gridtolerance="10"
     guidetolerance="10"
     inkscape:pageopacity="0"
     inkscape:pageshadow="2"
     inkscape:window-width="1920"
     inkscape:window-height="1022"
     id="namedview32"
     showgrid="true"
     inkscape:zoom="32.000001"
     inkscape:cx="18.553285"
     inkscape:cy="9.0568331"
     inkscape:window-x="-5"
     inkscape:window-y="23"
     inkscape:window-maximized="1"
     inkscape:current-layer="svg2"
     inkscape:snap-bbox="true"
     inkscape:bbox-paths="true"
     inkscape:bbox-nodes="true"
     inkscape:snap-bbox-edge-midpoints="true"
     inkscape:snap-bbox-midpoints="true"
     inkscape:object-paths="true"
     inkscape:snap-intersection-paths="true"
     inkscape:object-nodes="true"
     inkscape:snap-smooth-nodes="true"
     inkscape:snap-midpoints="true"
     inkscape:snap-object-midpoints="true"
     inkscape:snap-center="true"
     fit-margin-top="0"
     fit-margin-left="0"
     fit-margin-right="0"
     fit-margin-bottom="0">
    <inkscape:grid
       type="xygrid"
       id="grid3218"
       empspacing="5"
       visible="true"
       enabled="true"
       snapvisiblegridlinesonly="true"
       originx="-11px"
       originy="18px" />
  </sodipodi:namedview>
  <metadata
     id="metadata11">
    <rdf:RDF>
      <cc:Work
         rdf:about="">
        <dc:format>image/svg+xml</dc:format>
        <dc:type
           rdf:resource="http://purl.org/dc/dcmitype/StillImage" />
        <dc:title />
      </cc:Work>
    </rdf:RDF>
  </metadata>
  <defs
     id="defs4" />
  <path
     style="font-size:medium;font-style:normal;font-variant:normal;font-weight:normal;font-stretch:normal;text-indent:0;text-align:start;text-decoration:none;line-height:normal;letter-spacing:normal;word-spacing:normal;text-transform:none;direction:ltr;block-progression:tb;writing-mode:lr-tb;text-anchor:start;baseline-shift:baseline;color:#000000;fill:#27303a;fill-opacity:0.67451052000000000;stroke:none;stroke-width:2;marker:none;visibility:visible;display:inline;overflow:visible;enable-background:accumulate;font-family:Sans;-inkscape-font-specification:Sans;fill-rule:nonzero"
     d="M 8 -0.125 L 7.5 0.1875 L 1.5 3.65625 L 1 3.9375 L 1 4.53125 L 1 11.46875 L 1 12.0625 L 1.5 12.34375 L 7.5 15.8125 L 8 16.125 L 8.5 15.8125 L 14.5 12.34375 L 15 12.0625 L 15 11.46875 L 15 4.53125 L 15 3.9375 L 14.5 3.65625 L 8.5 0.1875 L 8 -0.125 z M 8 1.03125 L 8.25 1.15625 L 13.75 4.375 L 14 4.5 L 14 4.8125 L 14 11.1875 L 14 11.5 L 13.75 11.625 L 8.25 14.84375 L 8 14.96875 L 7.75 14.84375 L 2.25 11.625 L 2 11.5 L 2 11.1875 L 2 4.8125 L 2 4.5 L 2.25 4.375 L 7.75 1.15625 L 8 1.03125 z M 8 2.1875 L 3.46875 4.8125 L 8 7.40625 L 12.53125 4.8125 L 8 2.1875 z M 3 5.65625 L 3 10.9375 L 7.5 13.53125 L 7.5 8.28125 L 3 5.65625 z M 13 5.65625 L 8.5 8.28125 L 8.5 13.53125 L 13 10.9375 L 13 5.65625 z "
     id="path3760" />
  <path
     style="font-size:medium;font-style:normal;font-variant:normal;font-weight:normal;font-stretch:normal;text-indent:0;text-align:start;text-decoration:none;line-height:normal;letter-spacing:normal;word-spacing:normal;text-transform:none;direction:ltr;block-progression:tb;writing-mode:lr-tb;text-anchor:start;baseline-shift:baseline;color:#000000;fill:#f1f3f5;fill-opacity:0.90288714000000003;stroke:none;stroke-width:1;marker:none;visibility:visible;display:inline;overflow:visible;enable-background:accumulate;font-family:Sans;-inkscape-font-specification:Sans"
     d="M 8,1.03125 7.75,1.15625 2.25,4.375 2,4.5 l 0,0.3125 0,6.375 0,0.3125 0.25,0.125 5.5,3.21875 0.25,0.125 0.25,-0.125 L 13.75,11.625 14,11.5 14,11.1875 14,4.8125 14,4.5 13.75,4.375 8.25,1.15625 8,1.03125 z M 8,2.1875 12.53125,4.8125 8,7.40625 3.46875,4.8125 8,2.1875 z m -5,3.46875 4.5,2.625 0,5.25 L 3,10.9375 3,5.65625 z m 10,0 0,5.28125 -4.5,2.59375 0,-5.25 4.5,-2.625 z"
     id="path3798"
     inkscape:connector-curvature="0" />
</svg>

<?xml version="1.0" encoding="UTF-8"?>
<!-- Created with Inkscape (http://www.inkscape.org/) -->
<svg width="16" height="16" version="1.0" xmlns="http://www.w3.org/2000/svg" xmlns:cc="http://creativecommons.org/ns#" xmlns:dc="http://purl.org/dc/elements/1.1/" xmlns:rdf="http://www.w3.org/1999/02/22-rdf-syntax-ns#" xmlns:xlink="http://www.w3.org/1999/xlink">
	<metadata>
		<rdf:RDF>
			<cc:Work rdf:about="">
				<dc:format>image/svg+xml</dc:format>
				<dc:type rdf:resource="http://purl.org/dc/dcmitype/StillImage"/>
				<dc:title/>
			</cc:Work>
		</rdf:RDF>
	</metadata>
	<defs>
		<radialGradient id="a" cx="294.41" cy="-101.36" r="7.254" gradientTransform="matrix(1.5669 0 0 1.5164 -448.31 164.7)" gradientUnits="userSpaceOnUse">
			<stop stop-color="#213851" stop-opacity=".9059" offset="0"/>
			<stop stop-color="#27303a" stop-opacity="0" offset="1"/>
		</radialGradient>
		<radialGradient id="b" cx="7800.1" cy="-3926.4" r="6.5" gradientTransform="matrix(-7.7857e-6,1.8461,-2,-1.5122e-5,-7844.7,-14396)" gradientUnits="userSpaceOnUse">
			<stop stop-color="#ffffff" stop-opacity=".74858" offset="0"/>
			<stop stop-color="#ffffff" stop-opacity=".60511" offset="1"/>
		</radialGradient>
	</defs>
	<path d="m8-0.125-0.5 0.3125-6 3.4688-0.5 0.28125v0.59375 6.9375 0.59375l0.5 0.28125 6 3.4688 0.5 0.3125 0.5-0.3125 6-3.4688 0.5-0.28125v-0.59375-6.9375-0.59375l-0.5-0.28125-6-3.4688zm0 1.1562 0.25 0.125 5.5 3.2188 0.25 0.125v0.3125 6.375 0.3125l-0.25 0.125-5.5 3.2188-0.25 0.125-0.25-0.125-5.5-3.2188-0.25-0.125v-0.3125-6.375-0.3125l0.25-0.125 5.5-3.2188zm0 1.1562-4.5312 2.625 4.5312 2.5938 4.5312-2.5938zm-5 3.4688v5.2812l4.5 2.5938v-5.25zm10 0-4.5 2.625v5.25l4.5-2.5938z" color="#000000" fill="#090d11" fill-opacity=".76621" style="paint-order:normal;text-decoration-line:none;text-indent:0;text-transform:none"/>
	<path d="m8-0.125-0.5 0.3125-6 3.4688-0.5 0.28125v0.59375 6.9375 0.59375l0.5 0.28125 6 3.4688 0.5 0.3125 0.5-0.3125 6-3.4688 0.5-0.28125v-0.59375-6.9375-0.59375l-0.5-0.28125-6-3.4688-0.5-0.3125zm0 1.1562 0.25 0.125 5.5 3.2188 0.25 0.125v0.3125 6.375 0.3125l-0.25 0.125-5.5 3.2188-0.25 0.125-0.25-0.125-5.5-3.2188-0.25-0.125v-0.3125-6.375-0.3125l0.25-0.125 5.5-3.2188 0.25-0.125zm0 1.1562-4.5312 2.625 4.5312 2.5938 4.5312-2.5938-4.5312-2.625zm-5 3.4688v5.2812l4.5 2.5938v-5.25l-4.5-2.625zm10 0-4.5 2.625v5.25l4.5-2.5938v-5.2812z" color="#000000" fill="url(#a)" fill-opacity=".7533" style="block-progression:tb;font-variant-east_asian:normal;paint-order:normal;text-indent:0;text-transform:none"/>
	<path d="m8 1.0312-0.25 0.125-5.5 3.2188-0.25 0.125v0.3125 6.375 0.3125l0.25 0.125 5.5 3.2188 0.25 0.125 0.25-0.125 5.5-3.2188 0.25-0.125v-0.3125-6.375-0.3125l-0.25-0.125-5.5-3.2188-0.25-0.125zm0 1.1562 4.5312 2.625-4.5312 2.5938-4.5312-2.5938 4.5312-2.625zm-5 3.4688 4.5 2.625v5.25l-4.5-2.5938v-5.2812zm10 0v5.2812l-4.5 2.5938v-5.25l4.5-2.625z" color="#000000" fill="url(#b)" style="block-progression:tb;font-variant-east_asian:normal;paint-order:normal;text-indent:0;text-transform:none"/>
</svg>
